X: 1
T:William Tell Overture
S:Rossini arr Hugh Barwell, via PR
N:64-bar version for contra-dance use
F:http://kirby98.fsnet.co.uk/wi/William_Tell_Overture_1.abc 2010-5-1
M:4/4
L:1/4
K:C
G/G/ "A"|\
"C"GG/G/ GG | cd eG/G/ | GG/G/ ce | "G7"dB GG/G/ |\
"C"GG/G/ GG | cd ec/e/ | "G7"g2 -g/f/e/d/ | "C"ce c |]
e/e/ "B"|\
"Am"ee/e/ ee | ea ea | "Am"ea ed | cB Ae/e/ |\
"Am"ee/e/ ee | ea ea | "Am"ea "D7"g^f | "G"g3 |]
d "C"|\
"G7"dd/d/ de | fd2f | "C"ec2e | "G7"dG2d |\
"G7"dd/d/ de | fd2f | "C"ec2e | "G"d"f"G "e"G"d"G |\
"A2"[|\
"C"GG/G/ GG | cd eG/G/ | GG/G/ ce | "G7"dB GG/G/ |\
"C"GG/G/ GG | cd ec/e/ | "G7"g2 -g/f/e/d/ | "C"ce c |]
